!!!COM: Beethoven, Ludwig van
!!!CDT: 1770-1827
!!!OTL: Piano Sonata no. 7 in D major
!!!OPS: 10
!!!ONM: 3
!!!OMV: 2
!!!OMD: Largo e mesto
**kern	**kern	**dynam
*staff2	*staff1	*staff1/2
*Ipiano	*Ipiano	*Ipiano
*clefF4	*clefG2	*clefG2
*k[b-]	*k[b-]	*k[b-]
*d:	*d:	*d:
*M6/8	*M6/8	*M6/8
*MM40	*MM40	*MM40
=1-	=1-	=1-
*	*^	*
!	!	!	!LO:DY:rj
2.DD 2.FF 2.AA 2.D	(8dL	2.F 2.A	p
.	8c#	.	.
.	8dJ	.	.
.	8fL	.	.
.	8c#	.	.
.	8dJ)	.	.
=2	=2	=2	=2
2.DD 2.GG 2.BB- 2.D	(8dL	2.G 2.B-	.
.	8c#	.	.
.	8dJ	.	.
.	8gL	.	.
.	8c#	.	.
.	8dJ)	.	.
=3	=3	=3	=3
4CC# 4C#	(8fL	4G 4B-	.
.	8e	.	.
8DD 8D	8dJ)	8G 8B-	.
4EE 4E	(4c#	4G 4B-	.
8DD 8D	8d)	8G 8B-	.
=4	=4	=4	=4
4CC# 4C#	(8fL	4G 4B-	<
.	8e	.	.
8Cn 8D	8f#J	8A 8d	[ >
4BB- 4D	4d 4g	4.ryy	.
(8FF# 8AA 8F#	(<8c 8d 8a)	.	]
*	*v	*v	*
=5	=5	=5
4GG) 4D 4G)	8B-) 8d 8b-	.
.	(8b-'L	.
8r	8b-'J	.
4r	8b-'L	.
.	8b-'	.
8r	8b-'J)	.
!!LO:LB:g=original
=6	=6	=6
*^	*^	*
8eL	4G 4B- 4c#	(8eeL	4g 4b- 4cc#	<
8d#	.	8dd#	.	[ >
8eJ	8G 8B- 8c#	8eeJ	8g 8b- 8cc#	]
8eL	4G 4B- 4c#	8ggL	4g 4b- 4cc#	<
8d#	.	8dd#	.	[ >
8eJ	8G 8B- 8c#	8eeJ)	8g 8b- 8cc#	]
=7	=7	=7	=7	=7
8eL	4G# 4Bn 4d	(8eeL	4g# 4bn 4dd	<
8f	.	8ff)	.	[ >
8d 8fJ	8G# 8B	8ffJ	8g# 8b 8dd	]
4f:	4.G#: 4.B: 4.d:	4ff:	4.g#: 4.b: 4.dd:	sf
(16.eLL	.	(16.eeLL	.	>
32dJJk)	.	32ddJJk)	.	.
*v	*v	*	*	*
*	*v	*v	*
=8	=8	=8
4A 4d 4f	(8ddL>	]
.	8a)	.
8r	8a'J	.
4AA 4E 4G	(8aL	pp
.	8c#)	.
8r	8c#'J	.
=9	=9	=9
(16DLL	4d	.
16A	.	.
16F	.	.
16A	.	.
16D	8r	.
16AJJ)	.	.
.	(a8q	.
(16C#LL	()8.aaL	rfz
16A	.	.
16E	.	.
16A	16ggL	.
16C#	16ff	.
16AJJ)	16eeJJ)	.
!!LO:LB:g=original
=10	=10	=10
(16DLL	(16.ggLL	.
16A	.	.
.	32ffJk)	.
16F	[8ffJ	.
16A	.	.
16D	32ffLLL]	.
.	(64ggL	.
.	64ffJ)	.
16AJJ)	32.ee	.
.	64ddJJJ	.
(16AALL	(16ddLL	.
16A	16cc#J)	.
16G#	(8cc#'	.
16A	.	.
16Gn	8cc#'J)	.
16AJJ)	.	.
=11	=11	=11
(16FLL	16.ddSSsLL	.
16A	.	.
.	(32ee'Jk	.
16d	8ff'J)	.
16A	.	.
16F	16r	.
16DJJ)	16a\	.
.	(a8q	.
(16C#LL	(8.aaL)	rfz >
16A	.	.
16E	.	.
16A	16ggL	.
16G	16ff	.
16AJJ))	16eeJJ)	]
=12	=12	=12
(16DLL	(16.ggLL	.
16A	.	.
.	32ffJJk)	.
16G#	(8.ffL	.
16A	.	.
16Cn	.	.
16AJJ)	16ff#Jk)	.
.	(g8q	.
(16BBnLL	()8.ggL	rfz >
16Gn	.	.
16D	.	.
16G	16ffnL	.
16F	16ee	.
16GJJ)	16ddJJ)	]
=13	=13	=13
*^	*	*
4.ryy	(16CLL	(8ffL	.
.	16G	.	.
.	16c	8eeJ)	.
.	16Bn	.	.
.	16A	8r	.
.	16GJJ)	.	.
4.F#	16F#LL	8r	.
.	16d	.	.
.	16A	8cc' (8dd'L	<
.	16d	.	.
.	16c	8cc' 8dd'J)	.
.	16dJJ	.	.
!!LO:LB:g=original
=14	=14	=14	=14
*	*	*^	*
4G	16GLL	(8.eeL	4.cc	.
.	16e	.	.	.
.	16c	.	.	.
.	16e	32ffLL	.	.
.	.	32eeJJ)	.	.
8G	16G	16.dd'L	.	.
.	16eJJ	.	.	.
.	.	32ee'JJk	.	[
4G	16GLL	(8.ggL	4.bn	>
.	16f	.	.	.
.	16d	.	.	.
.	16f	16ffL)	.	.
8G	16G	(<16ee'<	.	.
.	16fJJ	16dd'<JJ)	.	]]
=15	=15	=15	=15	=15
(16CLL	4.ryy	(16dd#LL	8cc	<
16c	.	16eeJJ)	.	.
16AA	.	8r	8r	.
16A	.	.	.	.
16GG	.	8r	8r	.
16GJJ)	.	.	.	.
16FF#LL	4FF#	4.ryy	8r	.
16F#	.	.	.	.
16AA	.	.	8ddn' 8ccc' (8ddd'L	.
16F#	.	.	.	.
16FF#	8FF#	.	8dd' 8ccc' 8ddd'J)	.
16F#JJ	.	.	.	.
=16	=16	=16	=16	=16
.	.	(ee8q	.	.
16GGLL	4.GG	[8eeeL)	4.ryy	f >
16G	.	.	.	.
16C	.	(32eeeLL]	.	.
.	.	32ccc)	.	.
16G	.	32gg'	.	.
.	.	32ee'JJJ	.	.
16E	.	32cc'LLL	.	.
.	.	32g'	.	.
16GJJ	.	32e'	.	.
.	.	32c'JJJ	.	] p
16GGLL	4GG	(8.gL	4Bn	.
16G	.	.	.	.
16D	.	.	.	.
16G	.	16fL	.	.
16F	8GG	16d	8B	.
16GJJ	.	16gJJ)	.	.
!!LO:LB:g=original
=17	=17	=17	=17	=17
4E	4C	4c	4.ryy	.
8r	8r	(16.cLL	.	p
.	.	32ccJJk)	.	.
(4A	4.F	(4cc	4d#	.
.	.	.	.	.
!	!	!	!LO:N:vis=4	!
16BnLL	.	16bnLL	8d#	.
16cJJ)	.	16aJJ)	.	.
=18	=18	=18	=18	=18
(8cL	4E	(8aL	4e	.
8BnJ)	.	8g#J)	.	.
8r	8r	(16.aSssLL	8rc	.
.	.	32bnJJk)	.	.
8.AL	4.F	(8ccL	4d#	rfz
.	.	32bLL	.	.
.	.	32cc	.	.
(<32G#LL	.	32b	.	.
32AJJ	.	32ccJJ	.	.
32G#LL	.	32ddnLL	8d#X	.
32A	.	32cc	.	.
32Bn	.	32b	.	.
32cJJJ)	.	32aJJJ)	.	.
=19	=19	=19	=19	=19
(8cL	4E	(8aL	4e	.
8BnJ)	.	8g#J)	.	.
8r	8r	16r	8ryy	.
.	.	16g#	.	.
4.ryy	8.D 8.G# 8.BL	8.f 8.g# 8.bn 8.ffL	4.ryy	f
.	16E` 16G#` 16B`L	16e` 16g#` 16b` 16ee`L	.	.
.	16F` 16G#` 16B`	16d` 16g#` 16b` 16dd`	.	.
.	16BBn` 16D` 16B`JJ	16f` 16g#` 16ff`JJ	.	.
*v	*v	*	*	*
*	*v	*v	*
=20	=20	=20
8C` 8E` 8c`	8e` 8a` 8ee`	.
8r	8r	.
8D' 8A' 8Bn'L	8f' 8a' 8bn'L	p
8E' 8A' 8c'J	8e' 8a' 8cc'J	.
8r	8r	.
8EE' 8E'	8Bn' 8d' 8e' 8g#'	.
!!LO:LB:g=original
=21	=21	=21
*^	*	*
4AA'	4.ryy	4c' 4e' 4a'	.
8AA	.	8r	.
(4C^	4.FF	4r	.
16BBnLL	.	8D# ((8d#	.
16AAJJ)	.	.	.
=22	=22	=22	=22
8AAL	4EE	16E 16eLK))	.
.	.	8ez 8eez	.
8GG#J	.	.	.
.	.	16dn' 16ddn'L	.
16.r	8ryy	16c' 16cc'	.
.	.	16Bn' 16bn'JJ	.
32AA	.	.	.
!	!	!	!LO:DY:b=2:rj
(<8CL	4.FF	4A 4a	ff
32BBnLL	.	.	.
32C	.	.	.
32BB	.	.	.
32CJJ	.	.	.
32DLL	.	16r	.
32C	.	.	.
!	!	!	!LO:DY:rj
32BB	.	16D# (16d#	ff
32AAJJJ)	.	.	.
=23	=23	=23	=23
*	*	*^	*
(8AAL	4.EE	16E 16eLK)	4.ryy	.
.	.	8e (>8ee	.	f
8GG#J)	.	.	.	.
.	.	32dd#LL	.	.
.	.	32eeJJ	.	.
8r	.	32dd#LL	.	.
.	.	32ee	.	.
.	.	32dd#	.	.
.	.	32eeJJJ)	.	.
4G# 4Bn	(8.DL	8.f (8.ffL	4g# 4bn	ffp
.	16EL)	16e 16eeL)	.	.
8ryy	16F'>	16d'< 16ddn'<	8ryy	.
.	16BBn'>JJ	16f'< 16ff'<JJ	.	.
!!LO:LB:g=original
=24	=24	=24	=24	=24
4c# 4e	(8.GL	8.b-X ((8.bb-XL	4cc# 4ee	ffp
.	16AL)	16a 16aaL))	.	.
8ryy	16B-X'>	16g'< 16gg'<	8ryy	.
.	16E'>JJ	16b-'< 16bb-'<JJ	.	.
*v	*v	*	*	*
*clefG2	*	*	*
*^	*	*	*
4a	(8.d# 8.f#L	(8.cccnL	4ccn 4dd# 4ff#	ffp
.	16eL)	16bbnL)	.	.
8ryy	16f#'>	16aa'<	8ryy	.
.	16d#'>JJ	16ccc'<JJ	.	.
*v	*v	*	*	*
*	*v	*v	*
=25	=25	=25
8dn' 8fn' 8g#'	8bn' 8ddn' 8ffn' 8gg#'	.
8r	8r	.
(<8c' 8e'	8a' 8cc' 8ee' (8aa'	.
*clefF4	*	*
8D') 8d'	8f' 8a' 8b' 8ff')	.
8r	8r	.
8E' 8Bn'	8e' 8g#' 8ee'	.
=26	=26	=26
(16AALL	4a	pp
16C	.	.
16E	.	.
16C	.	.
16BBn	8r	.
16AAJJ)	.	.
(16GG#LL	8r	.
16BB	.	.
16E	(8ee'L	<
16D	.	.
16C	8ee'J)	.
16BBJJ)	.	.
=27	=27	=27
*^	*	*
8ryy	(<16AALL	[8eeL	.
.	16G#	.	.
[4A	16A	16.eeL]	.
.	16Gn	.	.
.	.	(64ffLL	.
.	.	64eeJJ)	.
.	16F	16.dd'	.
.	16EJJ)	.	.
.	.	32ee'JJk	.
.	.	(16ddqLL	.
.	.	16eeqJJ	.
(16A]LL	4.D	(4ff)	sf
16A	.	.	.
16d	.	.	.
16c#	.	.	.
16cn	.	16eeLL	.
16BnJJ)	.	16ddJJ)	.
!!LO:LB:g=original
=28	=28	=28	=28
*	*	*^	*
(4.E	(16ELL	4.ryy	[8ccL	<
.	16A	.	.	.
.	16e	.	(16.ccL]	.
.	16d#	.	.	.
.	.	.	64ddLL	.
.	.	.	64ccJJ)	.
.	16d#	.	16.bn	.
.	16cJJ	.	.	.
.	.	.	32ccJJk	.
.	.	(16bqLL	.	.
.	.	16ccqJJ	.	.
16BnLL	4E)	(4dd)	8re	ff >
16A	.	.	.	.
16G#	.	.	16re	.
16F	.	.	(16dLL	]
16E	8EE	16ccLL	16c	.
16DJJ)	.	16bnJJ)	16BnJJ)	.
=29	=29	=29	=29	=29
8C	8AA	16a'<LL	8A	p
.	.	16e'<	.	.
8ryy	8r	16c'	4ryy	.
.	.	16A'	.	.
8ryy	8AAA	16E<'<	.	.
.	.	16C<'<JJ	.	.
4.ryy	8AAA	8AA<	4.ryy	.
.	8rAAA	8rD<	.	.
.	8rAAA	8rD<	.	.
*	*	*clefF4	*clefF4	*
=30||	=30||	=30||	=30||	=30||
4r	8FFL	4.ryy	4r	.
.	8FF	.	.	.
8r	8FFJ	.	8r	.
(4C	8FFL	(4c	8AL	p
.	8FF	.	8A	.
16DLL	8FFJ	16dLL	8AJ	.
16EJJ)	.	16eJJ)	.	.
=31	=31	=31	=31	=31
4F	8FFL	4f	8A 8cL	.
.	8FF	.	8A 8c	.
8F	8FFJ	8f	8A 8cJ	.
(8.FL	8FFL	(8.fL	8A 8cL	.
.	8FF	.	8A 8c	.
32GLL	.	32gLL	.	.
32FJ	.	32fJ)	.	.
16E')	8FFJ	16e'	8A 8cJ	.
16F'JJ	.	16f'JJ	.	.
*v	*v	*	*	*
!!LO:LB:g=original
=32	=32	=32	=32
8EE 8CL	8F# (8f#	8B- 8cL	rfz
8EE 8C	4G 4g)	8B- 8c	.
8EE 8CJ	.	8B- 8cJ	.
8EE 8CL	8r	8B- 8cL	.
8EE 8C	8r	8B- 8c	.
8EE 8CJ	16.G (16.gLL	8B- 8cJ	.
.	32Fn 32fnJJk)	.	.
=33	=33	=33	=33
*^	*	*	*
8C (8FL	8GGL	8c (8fL	8B-L	.
8C 8E	8GG	8c 8e	8B-	.
16.DL	8GGJ	16.dL	8B-J	.
32CJJk)	.	32cJJk)	.	.
(4C	8GGL	(4c	8E 8B-L	.
.	8GG	.	8E 8B-	.
32ELLL	8GGJ	32eLLL	8B-J	.
32DJ)	.	32dJ	.	.
16CJJ	.	16cJJ)	.	.
=34	=34	=34	=34	=34
(8C	8FFL	(8c	8AL	<
[4F)	8FF	[4f)	8A 8c	.
.	8FFJ	.	8A 8cJ	.
(8FL]	8FFL	(8fL]	8A 8cL	.
8E	8FF	8e	8A 8c	.
8E-J)	8FFJ	8e-J)	8A 8cJ	.
=35	=35	=35	=35	=35
8E-L	8FF#L	8e-L	8A 8cL	ff
8D	8FF#	8d	8A 8c	.
16.C#L	8FF#J	16.c#L	8AJ	.
32DJJk	.	32dJJk	.	.
8E-L	8FF#L	8e-L	8A 8cnL	ff
8D	8FF#	8d	8A 8c	.
16.C#XL	8FF#J	16.c#L	8AJ	.
32DJJk	.	32dJJk	.	.
!!LO:LB:g=original
=36	=36	=36	=36	=36
.	(GG16qLL	.	.	.
.	BB-16q	.	.	.
.	D16qJJ	.	.	.
*	*	*	*	*^
!	!	!	!	!	!LO:DY:b=2
8r	2.G)	32d	32B-	f	fp
*	*	*	*	*v	*v
*	*	*clefG2	*clefG2	*
.	.	16.ryy	(32bb-LLL	p
.	.	.	32ccc	.
.	.	.	32dddJJJ)	.
8B- 8dL	.	4ryy	32r	.
.	.	.	(32dddLLL	.
.	.	.	32ccc	.
.	.	.	32bb-JJJ)	.
8B- 8dJ	.	.	32r	.
.	.	.	(32bb-LLL	.
.	.	.	32aa	.
.	.	.	32ggJJJ)	.
8B- 8dL	.	4.ryy	32r	.
.	.	.	(32ff#LLL	.
.	.	.	32gg	.
.	.	.	32ddJJJ)	.
8B- 8d	.	.	32r	.
.	.	.	(32ddLLL	.
.	.	.	32cc	.
.	.	.	32b-JJJ)	.
8B- 8dJ	.	.	32r	.
.	.	.	(32b-LLL<	.
.	.	.	32a	.
.	.	.	32gJJJ)	.
=37	=37	=37	=37	=37
!	!	!	!	!LO:DY:rj
8FnL	8GG#L	8fnL	8Bn 8dL	ff
8E	8GG#	8e	8B 8d	.
16.D#L	8GG#J	16.d#L	8BJ	.
32EJJk	.	32eJJk	.	ff
8FL	8GG#L	8fL	8B 8dnL	.
8E	8GG#	8e	8B 8d	.
16.D#XL	8GG#J	16.d#L	8BJ	.
32EJJk	.	32eJJk	.	.
*	*	*v	*v	*
!!LO:LB:g=original
=38	=38	=38	=38
.	(AA8qLL	.	.
.	C#8q	.	.
.	E8qJJ	.	.
*	*	*	*^
!	!	!	!LO:DY:rj	!LO:DY:b=2
8r	2.A)	32c# 32e	f	fp
*	*	*	*v	*v
.	.	(32ccc#LLL	p
.	.	32ddd	.
.	.	32eeeJJJ)	.
8c# 8eL	.	32r	.
.	.	(32eeeLLL	.
.	.	32ddd	.
.	.	32ccc#JJJ)	.
8c# 8eJ	.	32r	.
.	.	(32ccc#LLL	.
.	.	32bbn	.
.	.	32aaJJJ)	.
8c# 8eL	.	32r	.
.	.	(32gg#LLL	.
.	.	32aa	.
.	.	32eeJJJ)	.
8c# 8e	.	32r	.
.	.	(32eeLLL	.
.	.	32dd	.
.	.	32cc#JJJ)	.
8c# 8eJ	.	32r	.
.	.	(32cc#LLL	.
.	.	32bn	.
.	.	32aJJJ)	.
=39	=39	=39	=39
.	(AA16qLL	.	.
.	D16q	.	.
.	F16qJJ	.	.
!	!	!	!LO:DY:b=2
8r	2.A)	32r	fp
.	.	(32dddLLL	.
.	.	32eee	.
.	.	32fffJJJ)	.
8d 8fL	.	32r	.
.	.	(32fffLLL	.
.	.	32eee	.
.	.	32dddJJJ)	.
8d 8fJ	.	32r	.
.	.	(32ccc#LLL	.
.	.	32ddd	.
.	.	32aaJJJ)	.
8d 8fL	.	32r	.
.	.	(32gg#LLL	.
.	.	32bb-	.
.	.	32aaJJJ)	.
8d 8f	.	32r	.
.	.	(32aaLLL	.
.	.	32ggn	.
.	.	32ffJJJ)	.
8d 8fJ	.	32r	.
.	.	(32ffLLL	.
.	.	32ee	.
.	.	32ddJJJ)	.
!!LO:LB:g=original
=40	=40	=40	=40
.	(AA16qLL	.	.
.	E16q	.	.
.	G16qJJ	.	.
!	!	!	!LO:DY:b=2:rj
8r	2.A)	32r	fp
.	.	(32ggLLL	.
.	.	32aa	.
.	.	32bb-JJJ)	.
8e 8gL	.	32r	.
.	.	(32bb-LLL	.
.	.	32aa	.
.	.	32ggJJJ)	.
8e 8gJ	.	32r	.
.	.	(32ggLLL	.
.	.	32ff	.
.	.	32eeJJJ)	.
8e 8gL	.	32r	.
.	.	(32eeLLL	.
.	.	32dd	.
.	.	32cc#JJJ)	.
8e 8g	.	32r	.
.	.	(32b-LLL	.
.	.	32a	.
.	.	32gJJJ)	.
8e 8gJ	.	32r	.
.	.	(32gLLL	.
.	.	32f	.
.	.	32eJJJ)	.
=41	=41	=41	=41
!	!	!LO:TX:b:i:t=smorzando	!
2.rGG	2.ryy	32r	.
.	.	(32eLLL	.
.	.	32d	.
.	.	32c#JJJ)	.
.	.	32rA<	.
.	.	(<32B-<LLL	.
.	.	32A<	.
.	.	32G<JJJ)	.
.	.	32rA<	.
.	.	(<32G<LLL	.
.	.	32F<	.
.	.	32E<JJJ)	.
.	.	32rA<	.
.	.	(<32E<LLL	.
.	.	32D<	.
.	.	32C#<JJJ)	.
.	.	8rF<	.
.	.	8rF<	.
!!LO:LB:g=original
=42	=42	=42	=42
2.rGG	2.ryy	32rA<	.
.	.	(<32B-<LLL	.
.	.	32A<	.
.	.	32G<JJJ)	.
.	.	8r	.
.	.	8r	.
.	.	32r	.
.	.	(32eLLL	pp
.	.	32d	.
.	.	32c#JJJ)	.
.	.	8r	.
.	.	8r	.
=43	=43	=43	=43
2.rGG	2.ryy	32r	.
.	.	(32eLLL	f
.	.	32d	.
.	.	32c#JJJ)	.
.	.	(>[8b-L	sf
.	.	32b-LL]	>
.	.	32a	.
.	.	32g	.
.	.	32f#JJJ	.
.	.	32fnLLL	.
.	.	32e	.
.	.	32d#	.
.	.	32dnJJJ	.
.	.	32c#X<XLLL	.
.	.	32cn<	.
.	.	32Bn<	.
.	.	32B-<JJJ	.
.	.	32A<LLL	.
.	.	32G<	.
.	.	32F<	.
.	.	32E<JJJ)	.
!!LO:LB:g=original
=44	=44	=44	=44
*	*	*^	*
4.DD 4.FF 4.AA 4.D	4.ryy	(8dL	4.F 4.A	p
.	.	8c#	.	.
.	.	8dJ	.	.
(8FF 8AAL	4.DD (4.D	8fL	8F 8AL	.
8GG 8BB-	.	8c#	8G	.
8FF 8AAJ)	.	8dJ)	8F 8AJ	.
=45	=45	=45	=45	=45
4.DD 4.EE 4.GG 4.BB- 4.D	4.ryy	(8dL	4.E 4.G 4.B-	rfz
.	.	8c#	.	.
.	.	8dJ	.	.
(8DL	4.DD 4.GG 4.BB-	8gL	4G 4B-	.
8E	.	8c#	.	.
8DJ)	.	8dJ)	8G 8B-	.
*v	*v	*	*	*
=46	=46	=46	=46
(4CC# 4C#	((8fL	4G 4B-	rfz
.	8e)	.	.
8DD) 8D	8dJ	8G 8B-	.
!	!	!	!LO:DY:b=2:rj
(8FF 8FL	4c#	4G 4B-	rfz
8EE 8E	.	.	.
8DD) 8DJ	8d)	8G 8B-	.
=47	=47	=47	=47
(4CC# 4C#	(8fL	4G 4B-	<
.	8e)	.	.
8Cn 8D	8f#J	8A 8d	[ >
4BB- 4D	(8aL	4d	.
.	8g	.	.
8FF#) 8D 8F#	8aJ)	8c 8d	]
=48	=48	=48	=48
4GG 4D 4G	8b-	8B- 8d	.
.	(8b-'L	8rc	>
8r	8b-'J	8rc	.
4r	8b-'L	4rc	.
.	8b-'	.	.
8r	8b-'J)	8rc	.
!!LO:LB:g=original
=49	=49	=49	=49
8G 8B-L	8b-L	(8e-L	pp
8G 8B-	8b-	8d	.
8G 8B-J	8b-J	8e-J	.
8G 8B-L	8b-L	8gL	.
8G 8B-	8b-	8d	.
8G 8B-J	8b-J	8e-J)	.
=50	=50	=50	=50
8G- 8B- 8e-L	(8ee-L	8b-L	.
8G- 8B- 8e-	8dd	8b-	.
8G- 8B- 8e-J	8ee-SSsJ	8b-J	.
8G- 8B- 8e-L	8gg-L	8b-L	.
8G- 8B- 8e-	8dd	8b-	.
8G- 8B- 8e-J	8ee-J)	8b-J	.
=51	=51	=51	=51
8F 8A 8c 8e-L	(8aaL	8a 8ee-L	<
8F 8A 8c 8e-	8gg#	8ee-	.
8F 8A 8c 8e-J	8aaJ	8ee-J	.
8F# 8A 8c 8e-L	8ccc 8eee-L	8ee-L	.
8F# 8A 8c 8e-	8eee-	8ee- 8gg#X	.
8F# 8A 8c 8e-J	8eee-J)	8ee- 8aaJ	.
=52	=52	=52	=52
(16GLL	4ddd	4dd 4bb-	fp
16B-	.	.	.
16d	.	.	.
16B-	.	.	.
16G	8r	8r	.
16B-JJ	.	.	.
16EnLL	8r	8r	.
16G 16B-	.	.	.
16c	(8ccc'L	8bb-L	.
16G 16B-	.	.	.
16E	8ccc'J)	8bb-J	.
16G 16B-JJ)	.	.	.
!!LO:PB:g=original
=53	=53	=53	=53
(16FLL	(8.dddL	4.bb-	.
16B-	.	.	.
16d	.	.	.
16B-	32eee-LL	.	.
.	32dddJJ)	.	.
16F	16.ccc#'L	.	f
16B-JJ)	.	.	.
.	32ddd'JJk	.	.
(16FLL	4.ryy	(8.fffL	.
16A	.	.	.
16e-	.	.	.
16A	.	16eee-L)	.
16F	.	(16ddd'	.
16AJJ)	.	16cccn'JJ)	.
*	*v	*v	*
=54	=54	=54
*^	*	*
4.ryy	(16B-LL<	(16ccc#LL	.
.	16F	16dddJJ)	.
.	16D	8r	.
.	16BB-	.	.
.	16GG	8r	.
.	16FFJJ)	.	.
16EEnLL	4EEn	8r	.
16C	.	.	.
16GG	.	8ccn' 8bb-X' (8cccn'L	<
16C	.	.	.
16BB-	8EE	8cc' 8bb-' 8ccc'J)	.
16CJJ	.	.	.
=55	=55	=55	=55
*	*	*^	*
16FFLL	4.FF	[8dddL	4.ryy	ff >
16F	.	.	.	.
16BB-	.	(32dddLL]	.	.
.	.	32bb-)	.	.
16F	.	32ff'	.	.
.	.	32dd'JJJ	.	.
16D	.	32b-'LLL	.	.
.	.	32f'	.	.
16FJJ	.	32d'	.	.
.	.	32B-JJJ	.	]
16rF	4FF	(8.fL	4A	p
(16CLL	.	.	.	.
16F	.	.	.	.
16E-	.	16e-L	.	.
16C	8FF	16c	8A	.
16FJJ)	.	16fJJ)	.	.
=56	=56	=56	=56	=56
4D	4BB-	(>4B-	4.ryy	.
8r	8r	8d	.	.
(4D	4.BB-	4f	4G#	.
16EnLL	.	16enLL	8G#	.
16FJJ)	.	16dJJ)	.	.
!!LO:LB:g=original
=57	=57	=57	=57	=57
(8FL	4AA	(8dL	4A	.
8EJ)	.	8c#J)	.	.
8rF	8rGG	(16.dSSsLL	8r	.
.	.	32eJJk)	.	.
8.DL	4.BB-	(8fL	4G#	rfz
.	.	32eLL	.	.
.	.	32f	.	.
(<32C#LL	.	32e	.	.
32DJJ	.	32fJJ	.	.
32C#LL	.	32gnLL	8G#X	.
32D	.	32f	.	.
32E	.	32e	.	.
32FJJJ)	.	32dJJJ)	.	.
=58	=58	=58	=58	=58
8FL	4AA	(8dL	4A	.
8EJ	.	8c#J)	.	.
!	!	!LO:N:vis=16	!	!
8r	8r	16.r	8ryy	.
.	.	32c#	.	f
8.GG 8.C# 8.EL	4.ryy	8.B- 8.c# 8.e 8.b-L	4.ryy	.
16AA' 16C#' 16E'L	.	16A` 16c#` 16e` 16a`L	.	.
16BB-` 16C#` 16E`	.	16G` 16c#` 16e` 16g`	.	.
16EE` 16GG` 16E`JJ	.	16B-` 16c#` 16b-`JJ	.	.
*v	*v	*	*	*
*	*v	*v	*
=59	=59	=59
8FF` 8AA` 8F`	8A` 8d` 8a`	.
8r	8r	.
!	!	!LO:DY:rj
8GG' 8D' 8E'L	8B-' 8d' 8e'L	p
8AA' 8D' 8F'J	8A' 8d' 8f'J	.
8r	8r	.
8AAA' 8AA'	8E' 8G' 8A' 8c#'	.
=60	=60	=60
*^	*	*
4DD' 4D'	4ryy	4F' 4A' 4d'	.
8D	8r	8r	.
(4F^	4.BB-	4r	.
!	!	!	!LO:DY:a
16ELL	.	8G# (8g#	f
16DJJ)	.	.	.
!!LO:LB:g=original
=61	=61	=61	=61
8DL	4AA	16A 16aLK)	.
.	.	8az 8aaz	.
8C#J	.	.	.
.	.	16g' 16gg'L	.
16.rF	8rEE	16f' 16ff'	.
.	.	16e' 16ee'JJ	.
32D	.	.	.
!	!	!	!LO:DY:rj
8FL	4BB-	4d 4dd	ff
(<32ELL	.	.	.
32F	.	.	.
32E	.	.	.
32FJJ	.	.	.
32GLL	8ryy	16r	.
32F	.	.	.
32E	.	16G# (16g#	.
32DJJJ)	.	.	.
=62	=62	=62	=62
*	*	*^	*
4AA	(8DL	16A 16aLK)	4.ryy	.
.	.	8a 8aa	.	.
.	8C#J)	.	.	.
.	.	(32gg#LL	.	.
.	.	32aaJJ	.	.
8r	8r	32gg#LL	.	.
.	.	32aa	.	.
.	.	32gg#	.	.
.	.	32aaJJJ)	.	.
4.c# 4.e	(8.GL	(<8.b- 8.bb-L	4.cc# 4.ee	ffp
.	16AL)	16a) 16aaL	.	.
.	16B-'	16gn'< 16ggn'<	.	.
.	16E'JJ	16b-'< 16bb-'<JJ	.	.
*v	*v	*	*	*
*clefG2	*	*	*
=63	=63	=63	=63
*^	*	*	*
*	*	*8va	*	*
4.f# 4.a	(8.cnL	(<8.ee- 8.eee-L	4.ff# 4.aa	ffp
.	16dL)	16dd) 16dddL	.	.
.	16e-'>	16ccn'< 16cccn'<	.	.
.	16A'>JJ	16ee-'< 16eee-'<JJ	.	.
4.g# 4.bn	(8.dL	(<8.ffn 8.fffnL	4.gg# 4.bbn	ffp
.	16enL)	16een) 16eeenL	.	.
.	16fn'>	16dd'< 16ddd'<	.	.
.	16d'>JJ	16ff'< 16fff'<JJ	.	.
!!LO:LB:g=original
=64	=64	=64	=64	=64
8cc#	8e' 8gn' 8b-X'	8ccc#	8ee 8ggn 8bb-X	.
*	*	*X8va	*	*
8r	8r	8r	8r	.
(<8f'< 8a'<L	4.ryy	4.ryy	8dd' 8ff' 8aa' (8ddd'L	p
8G'<) 8d'< 8e'< 8g'<J	.	.	8b-' 8dd' 8ee' 8bb-'J)	.
8r	.	.	8r	.
*clefF4	*clefF4	*	*	*
8A'\ 8c#'\ 8e'\	8ryy	8ryy	8a' 8cc#' 8ee' 8aa'	.
*	*	*v	*v	*
=65	=65	=65	=65
*	*	*Xbrackettup	*
2.D	(8DDL	48r	pp
.	.	48F<LLL	.
.	.	48A<	.
.	.	48d	.
.	.	48A<	.
.	.	48F<JJJ	.
.	8CC#	48r	.
.	.	48F<LLL	.
.	.	48A<	.
.	.	48d	.
.	.	48A<	.
.	.	48F<JJJ	.
.	8DDJ	48r	.
.	.	48F<LLL	.
.	.	48A<	.
.	.	48d	.
.	.	48A<	.
.	.	48F<JJJ	.
*	*	*Xtuplet	*
.	8FFL	48r	.
.	.	48F<LLL	.
.	.	48A<	.
.	.	48d	.
.	.	48A<	.
.	.	48F<JJJ	.
.	8CC#	48r	.
.	.	48G<LLL	.
.	.	48A<	.
.	.	48d	.
.	.	48A<	.
.	.	48F<JJJ	.
.	8DDJ)	48r	.
.	.	48F<LLL	.
.	.	48A<	.
.	.	48d	.
.	.	48A<	.
.	.	48F<JJJ	.
!!LO:LB:g=original
=66	=66	=66	=66
*	*	*tuplet	*
2.BB-	(8BBB-L	48r	<
.	.	48F<LLL	.
.	.	48B-<	.
.	.	48d	.
.	.	48B-<	.
.	.	48F<JJJ	.
*	*	*Xtuplet	*
.	8AAA	48r	.
.	.	48F<LLL	.
.	.	48B-<	.
.	.	48d	.
.	.	48B-<	.
.	.	48F<JJJ	.
.	8BBB-J	48r	.
.	.	48F<LLL	.
.	.	48B-<	.
.	.	48d	.
.	.	48B-<	.
.	.	48F<JJJ	.
.	8DDL	48r	.
.	.	48F<LLL	.
.	.	48B-<	.
.	.	48d	.
.	.	48B-<	.
.	.	48F<JJJ	.
.	8AAA	48r	.
.	.	48F<LLL	.
.	.	48B-<	.
.	.	48d	.
.	.	48B-<	.
.	.	48F<JJJ	.
.	8BBB-J)	48r	.
.	.	48F<LLL	.
.	.	48B-<	.
.	.	48d	.
.	.	48B-<	.
.	.	48F<JJJ	.
=67	=67	=67	=67
4.GGG-	(8GGG-L	48r	f
.	.	48G-<LLL	.
.	.	48B-<	.
.	.	48e-	.
.	.	48B-<	.
.	.	48G-<JJJ	.
.	8BBB-	48r	.
.	.	48G-<LLL	.
.	.	48B-<	.
.	.	48e-	.
.	.	48B-<	.
.	.	48G-<JJJ	.
.	8EE-J)	48r	.
.	.	48G-<LLL	.
.	.	48B-<	.
.	.	48e-	.
.	.	48B-<	.
.	.	48G-<JJJ	.
!!LO:LB:g=original
=-	=-	=-	=-
*	*	*tuplet	*
4.GG-	(8GG-L	48r	.
.	.	48G-y<LLL	.
.	.	48B-<	.
.	.	48e-y	.
.	.	48B-<	.
.	.	48G-y<JJJ	.
*	*	*Xtuplet	*
.	8BB-	48r	.
.	.	48G-y<LLL	.
.	.	48B-<	.
.	.	48e-y	.
.	.	48B-<	.
.	.	48G-y<JJJ	.
.	8E-J)	48r	.
.	.	48G-y<LLL	.
.	.	48B-<	.
.	.	48e-y	.
.	.	48B-<	.
.	.	48G-y<JJJ	.
=68	=68	=68	=68
4.AAn	(8AAnL	48r	.
.	.	48AnLLL	.
.	.	48c	.
.	.	48f#	.
.	.	48e-	.
.	.	48cJJJ	.
.	[8F#z>	48r	.
.	.	48ALLL	.
.	.	48c	.
.	.	48f#	.
.	.	48e-	.
.	.	48cJJJ	.
.	8E- 8F#J]	48r	.
.	.	48ALLL	.
.	.	48c	.
.	.	48f#	.
.	.	48e-	.
.	.	48cJJJ	.
4.BB-	8BB-L	48r	.
.	.	48B-LLL	.
.	.	48e-X	.
.	.	48gn	.
.	.	48e-	.
.	.	48B-JJJ	.
.	[>8Gnz>	48r	.
.	.	48B-LLL	.
.	.	48e-	.
.	.	48g	.
.	.	48e-	.
.	.	48B-JJJ	.
.	8E-X) 8GJ]	48r	.
.	.	48B-LLL	.
.	.	48e-	.
.	.	48g	.
.	.	48e-	.
.	.	48B-JJJ	.
!!LO:LB:g=original
=69	=69	=69	=69
4.BBn	8BBnL	48r	.
.	.	48BnLLL	.
.	.	48d	.
.	.	48a-	.
.	.	48fn	.
.	.	48dJJJ	.
.	[>8A-z>	48r	.
.	.	48BLLL	.
.	.	48d	.
.	.	48a-	.
.	.	48f	.
.	.	48dJJJ	.
.	8Fn 8A-J]	48r	.
.	.	48BLLL	.
.	.	48d	.
.	.	48a-	.
.	.	48f	.
.	.	48dJJJ	.
8rA	(4C	48r	.
.	.	48cLLL	.
.	.	48f	.
.	.	48an	.
.	.	48f	.
.	.	48cJJJ	.
(8AnLz>	.	48r	.
.	.	48cLLL	.
.	.	48f	.
.	.	48a	.
.	.	48f	.
.	.	48cJJJ	.
8B-J)	8C#) 8E 8G	64r	.
.	.	64c#LLLL	.
.	.	64en	.
.	.	64g	.
.	.	64b-	.
.	.	64g	.
.	.	64e	.
.	.	64c#JJJJ	.
=70	=70	=70	=70
8rc	(4D	48r	.
.	.	48dLLL	.
.	.	48f	.
.	.	48bn	.
.	.	48a-	.
.	.	48fJJJ	.
8F 8A- (8BnL	.	48r	sf
.	.	48dLLL	.
.	.	48f	.
.	.	48b	.
.	.	48a-	.
.	.	48fJJJ	.
8F# 8An 8cJ)	8E-)	64r	.
.	.	64e-LLLL	.
.	.	64f#	.
.	.	64an	.
.	.	64cc	.
.	.	64a	.
.	.	64f#	.
.	.	64e-JJJJ	.
!!LO:LB:g=original
=	=	=	=
!	!LO:N:vis=4.	!	!
8rc	(4En	48r	.
.	.	48enLLL	.
.	.	48g	.
.	.	48cc#	.
.	.	48b-	.
.	.	48gJJJ	.
(8G 8B-X 8c#L	.	48r	sf
.	.	48eLLL	.
.	.	48g	.
.	.	48cc#	.
.	.	48b-	.
.	.	48gJJJ	.
8A 8dJ)	8Fn)	48r	.
.	.	48fnLLL	.
.	.	48a	.
.	.	48dd	.
.	.	48a	.
.	.	48fJJJ	.
=71	=71	=71	=71
8r	4.G	64r	ff
.	.	64gLLLL	.
.	.	64b-	.
.	.	64dd	.
.	.	64ee	.
.	.	64dd	.
.	.	64b-	.
.	.	64gJJJJ	.
8B- 8d 8eL	.	64r	.
.	.	64gLLLL	.
.	.	64b-	.
.	.	64dd	.
.	.	64ee	.
.	.	64dd	.
.	.	64b-	.
.	.	64gJJJJ	.
8B- 8d 8eJ	.	64r	.
.	.	64gLLLL	.
.	.	64b-	.
.	.	64dd	.
.	.	64ee	.
.	.	64dd	.
.	.	64b-	.
.	.	64gJJJJ	.
8r	4.G#	64r	.
.	.	64g#LLLL	.
.	.	64bn	.
.	.	64dd	.
.	.	64ee	.
.	.	64dd	.
.	.	64b	.
.	.	64g#JJJJ	.
8Bn 8d 8eL	.	64r	.
.	.	64g#LLLL	.
.	.	64b	.
.	.	64dd	.
.	.	64ee	.
.	.	64dd	.
.	.	64b	.
.	.	64g#JJJJ	.
8B 8d 8eJ	.	64r	.
.	.	64g#LLLL	.
.	.	64b	.
.	.	64dd	.
.	.	64ee	.
.	.	64dd	.
.	.	64b	.
.	.	64g#JJJJ	.
*v	*v	*	*
*clefG2	*	*
!!LO:LB:g=original
=72	=72	=72
*^	*	*
8r	2.A	32a 32dd 32ff	f
.	.	(32dddLLL	p
.	.	32eee	.
.	.	32fffJJJ)	.
8d 8f 8aL	.	32r	.
.	.	(32fffLLL	.
.	.	32eee	.
.	.	32dddJJJ)	.
8d 8f 8aJ	.	32r	.
.	.	(32ccc#LLL	.
.	.	32ddd	.
.	.	32aaJJJ)	.
8d 8f 8aL	.	32r	.
.	.	(32gg#LLL	.
.	.	32bb-X	.
.	.	32aaJJJ)	.
8d 8f 8a	.	32r	.
.	.	(32aaLLL	.
.	.	32ggn	.
.	.	32ffJJJ)	.
8d 8f 8aJ	.	32r	.
.	.	(32ffLLL	.
.	.	32ee	.
.	.	32ddJJJ)	.
=73	=73	=73	=73
8rdd	4.A	32r	.
.	.	(32ggLLL	.
.	.	32aa	.
.	.	32bb-JJJ)	.
8d 8e 8gL	.	32r	.
.	.	(32bb-LLL	.
.	.	32aa	.
.	.	32ggJJJ)	.
8d 8e 8gJ	.	32r	.
.	.	(32ggLLL	.
.	.	32ff	.
.	.	32eeJJJ)	.
8rdd	4.A	32r	.
.	.	(32eeLLL	.
.	.	32dd	.
.	.	32cc#JJJ)	.
8c# 8e 8gL	.	32r	.
.	.	(32b-LLL	.
.	.	32a	.
.	.	32gJJJ)	.
8c# 8eJ	.	32r	.
.	.	(32gLLL	.
.	.	32f	.
.	.	32eJJJ)	.
*v	*v	*	*
*clefF4	*	*
!!LO:LB:g=original
=74	=74	=74
*^	*	*
!	!	!	!LO:DY:b=2
8rA	2.AA	32r	fp
.	.	(32ddLLL	.
.	.	32ee	.
.	.	32ffJJJ)	.
8D 8F 8AL	.	32r	.
.	.	(32ffLLL	.
.	.	32ee	.
.	.	32ddJJJ)	.
8D 8F 8AJ	.	32r	.
.	.	(32cc#LLL	.
.	.	32dd	.
.	.	32aJJJ)	.
8D 8F 8AL	.	32r	.
.	.	(32g#LLL	.
.	.	32b-i	.
.	.	32aJJJ)	.
8D 8F 8A	.	32r	.
.	.	(32aLLL	.
.	.	32gn	.
.	.	32fJJJ)	.
8D 8F 8AJ	.	32r	.
.	.	(32fLLL	.
.	.	32e	.
.	.	32dJJJ)	.
=75	=75	=75	=75
8rA	4.AA	32r	.
.	.	(32gLLL	.
.	.	32a	.
.	.	32b-JJJ)	.
8D 8E 8GL	.	32r	.
.	.	(32b-LLL	.
.	.	32a	.
.	.	32gJJJ)	.
8D 8E 8GJ	.	32r	.
.	.	(32gLLL	.
.	.	32f	.
.	.	32eJJJ)	.
8rA	4.AA	32r	.
.	.	(32eLLL	.
.	.	32d	.
.	.	32c#JJJ)	.
8C# 8E 8GL<	.	32re<	.
.	.	(32B-<LLL	.
.	.	32A<	.
.	.	32G<JJJ)	.
8C# 8EJ	.	32re<	.
.	.	(32G<LLL	.
.	.	32F<	.
.	.	32E<JJJ)	.
*v	*v	*	*
!!LO:LB:g=original
=76	=76	=76
4DD 4D	4r	.
8r	8r	.
4r	(8ffL	pp
.	8cc#	.
8r	8ddJ)	.
=77	=77	=77
4.G 4.d 4.g	4.b- 4.dd 4.bb-	.
4r	(8bb-L	pp
.	8cc#	.
8r	8ddJ)	.
=78	=78	=78
4.F 4.d 4.f	4.a 4.dd 4.aa	.
4.r	(8fffL	pp
.	8ccc#	.
.	8dddJ)	.
*clefG2	*	*
=79	=79	=79
(8ddL	(8dddL	.
8a	8aa	.
8b-J)	8bb-J)	.
(8b-L	(8bb-L	<
8f#	8ff#	.
8gJ)	8ggJ)	.
=80	=80	=80
8gL	(8ggL	.
8d	8dd	.
8e-J	8ee-J)	.
*clefF4	*	*
(4E-	(4e- 4ee-	f
8D	8d 8dd	.
=81	=81	=81
(4C#)	4c#) 4cc#	.
8r	8r	.
4r	(4gg#	pp
8r	8aa)	.
=82	=82	=82
4.DD 4.D	4.A 4.d 4.f	.
4r	(4gg#	rfz
8r	8aa)	.
!!LO:LB:g=original
=83	=83	=83
4.AAA 4.AA	4.Gn 4.c# 4.en	.
4r	(4gg#	rfz
8r	8aa)	.
=84	=84	=84
*^	*	*
4D	4.DD	4r	.
*	*	*clefF4	*clefF4
8BB-' (8D'	.	8G' (8d'	pp <
4AA' 4D'	4.DD	4F' 4d'	[[
.	.	.	[[ >
8GG' 8D')	.	8E' 8B-' 8c#' 8d')	]
=85	=85	=85	=85
4FF' (4D'	4.DD	4F' 4A' (4d'	<
8BB-' 8D'	.	8G' 8d'	[[
4AA 4D	4.DD	4F' 4d'	>
8GG' 8D')	.	8E' 8B-' 8c#' 8d')	]]
*v	*v	*	*
=86	=86	=86
4DD 4FF 4AA 4D	4F 4A 4d	.
*	*clefG2	*clefG2
8r	(8cc#	pp
4r	8dd)	.
.	8r	.
8r	(8ccc#	.
=87	=87	=87
4r	8ddd)	.
.	8r	.
!	!	!LO:DY:b=2:rj
8DD	8r	pp
4DD	4r	.
8r;	8r;	.
==	==	==
*-	*-	*-
!!!RDF**kern: > = above
!!!RDF**kern: < = below
!!!RDF**kern: i = editorial accidental
!!!verovio: beamFrenchStyle
!!!LOR: Durand 1915, plates 9327/9328, Paul Dukas, ed.
!!!PED: Dukas, Paul
!!!URL-vhv: https://verovio.humdrum.org/?file=beethoven/sonatas/sonata07-2.krn
!!!URL-pdf: https://github.com/craigsapp/beethoven-piano-sonatas/blob/master/reference-edition/sonata07-2.pdf
!!!ENC: Craig Stuart Sapp
!!!END: 2008/10/29
!!!EED: Craig Stuart Sapp
!!!EEV: 2021/01/11
